svg/color/grt.svg

<svg width="64" height="65" viewBox="0 0 64 65" fill="none" xmlns="http://www.w3.org/2000/svg">
<rect y="0.303711" width="64" height="64" rx="32" fill="#6747ED"/>
<rect x="0.5" y="0.803711" width="63" height="63" rx="31.5" stroke="#070B14" stroke-opacity="0.15"/>
<path fill-rule="evenodd" clip-rule="evenodd" d="M31.5333 36.437C26.7999 36.437 22.9999 32.637 22.9999 27.9036C22.9999 23.1703 26.7999 19.3703 31.5333 19.3703C36.2666 19.3703 40.0666 23.1703 40.0666 27.9036C40.0666 32.637 36.2666 36.437 31.5333 36.437ZM31.5333 15.1036C38.5999 15.1036 44.3333 20.837 44.3333 27.9036C44.3333 34.9703 38.5999 40.7036 31.5333 40.7036C24.4666 40.7036 18.7333 34.9703 18.7333 27.9036C18.7333 20.837 24.4666 15.1036 31.5333 15.1036ZM43.7333 41.3703C44.5999 42.237 44.5999 43.5703 43.7333 44.3703L35.1999 52.9036C34.3333 53.7703 32.9999 53.7703 32.1999 52.9036C31.3333 52.037 31.3333 50.7036 32.1999 49.9036L40.7333 41.3703C41.5333 40.5036 42.9333 40.5036 43.7333 41.3703ZM48.6666 17.237C48.6666 18.437 47.7333 19.3703 46.5333 19.3703C45.3333 19.3703 44.3999 18.437 44.3999 17.237C44.3999 16.037 45.3333 15.1036 46.5333 15.1036C47.6666 15.1036 48.6666 16.037 48.6666 17.237Z" fill="white"/>
</svg>

<svg xmlns="http://www.w3.org/2000/svg" width="64" height="65" fill="none" viewBox="0 0 64 65"><rect width="64" height="64" y=".304" fill="#6747ED" rx="32"/><rect width="63" height="63" x=".5" y=".804" stroke="#070B14" stroke-opacity=".15" rx="31.5"/><path fill="#fff" fill-rule="evenodd" d="M31.533 36.437A8.507 8.507 0 0 1 23 27.904c0-4.734 3.8-8.534 8.533-8.534 4.734 0 8.534 3.8 8.534 8.534 0 4.733-3.8 8.533-8.534 8.533m0-21.333c7.067 0 12.8 5.733 12.8 12.8 0 7.066-5.733 12.8-12.8 12.8-7.066 0-12.8-5.734-12.8-12.8s5.734-12.8 12.8-12.8m12.2 26.266c.867.867.867 2.2 0 3L35.2 52.904c-.867.866-2.2.866-3 0-.867-.867-.867-2.2 0-3l8.533-8.534c.8-.866 2.2-.866 3 0m4.934-24.133c0 1.2-.934 2.133-2.134 2.133s-2.133-.933-2.133-2.133.933-2.133 2.133-2.133c1.134 0 2.134.933 2.134 2.133" clip-rule="evenodd"/></svg>
